X: 5
T:Skipping Along
R:slip jig
C:Tony Upton, 3/21/98
M:9/8
L:1/8
Q:3/8=130
K:A
B3 ADF DFA|AFD AFD A3|A2B ADF DFA|BAF ADF A3|!
B2A ADF DFA|AFD AFD A2B|d2B ADF DFA|f2d edB d3:|!
d3 B3 AdB|DAF AdB d3|e3 fed fed|ABd fdB A3|!
d3 dBA AdB|DAF AdB d3|e3 fed fed|f2d edB d3:|!
